X:1
T: The Man in the Moon
C:
R:Jig
Q:180
K:Em
M:6/8
L:1/16
dc|B2G2E2 E2F2A2|B2A2B2 d4B2|A2F2D2 D2F2A2|D2F2A2 d2f2d2|B2G2E2 E2F2A2|B2A2B2 d2e2f2|e2d2B2 A2d2F2|F2E2E2 E4dc|
B2G2E2 E2F2A2|B2A2B2 d4B2|A2F2D2 D2F2A2|D2F2A2 d2f2d2|B2G2E2 E2F2A2|B2A2B2 d2e2f2|e2d2B2 A2d2F2|F2E2E2 E4(3cde|
e2f2e2 e2d2B2|d2e2f2 g4e2|d2e2d2 d2c2B2|d2e2f2 g2b2g2|efg2e2 e2d2B2|d2e2f2 g2f2g2|e2d2B2 A2d2F2|F2E2E2 E4(3cde|
e2f2e2 e2d2B2|d2e2f2 g4e2|d2e2d2 d2c2B2|d2e2f2 g2b2g2|efg2e2 e2d2B2|d2e2f2 g2f2g2|e2d2B2 A2d2F2|F2E2E2 E4||
